X: 3763
T: Birmingham, The
R: reel
M: 4/4
K: Gmajor
~g3 f {g}gd B/c/d|gd B/c/d e2 ab|{f}~g3 f {g}gd B/c/d|ecAc BG B/c/d||
{f}~g3 f {g}gd B/c/d|gd B/c/d e2 ab|{f}(3gag fa {b}gd B/c/d|ecAc {c}BG{B}AF||
Gd B/c/d ~G3 z|Gd B/c/d e ~A3|Gd B/c/d g2 eg|fdcA {B}AGFA||
Gd B/c/d ~G3 z|Gd B/c/d e ~A3|Gd B/c/d .g3 e|fd c/B/A {B}AGFA||
~G2 dG {B}AG dG|~G2 dG FDFA|{F}~G3 d B/c/d e2|{b}fdcA {B}AGFA||
~G2 dG {B}AG dB|GBdG FDFA|{F}~G3 d B/c/d e2|{b}fdcA {B}AGfa||

